icons/solid/chats.svg

<svg width="24" height="24" viewBox="0 0 24 24" fill="none" xmlns="http://www.w3.org/2000/svg">
<path fill-rule="evenodd" clip-rule="evenodd" d="M2 10C2 5.99494 5.7319 3 10 3C14.2681 3 18 5.99494 18 10C18 14.0051 14.2681 17 10 17C8.85549 17 7.7626 16.7898 6.77197 16.4079L3.15835 16.9874C2.81651 17.0422 2.47063 16.9163 2.244 16.6546C2.01738 16.3928 1.94226 16.0325 2.04543 15.702L2.84556 13.1388C2.30771 12.2001 2 11.1336 2 10ZM10 18.1667C9.05768 18.1667 8.14535 18.0445 7.28378 17.816C8.73557 19.7631 11.2571 21 14 21C15.1445 21 16.2374 20.7898 17.228 20.4079L20.8416 20.9874C21.1835 21.0422 21.5294 20.9163 21.756 20.6546C21.9826 20.3929 22.0577 20.0325 21.9546 19.702L21.1544 17.1388C21.6923 16.2001 22 15.1336 22 14C22 11.8279 20.9023 9.95292 19.2167 8.69165C19.2934 9.1156 19.3333 9.55239 19.3333 10C19.3333 14.6726 14.9795 18.1667 10 18.1667Z" fill="currentColor"/>
</svg>

<svg width="24" height="24" fill="none" xmlns="http://www.w3.org/2000/svg"><path fill-rule="evenodd" clip-rule="evenodd" d="M2 10c0-4.005 3.732-7 8-7s8 2.995 8 7-3.732 7-8 7a8.973 8.973 0 01-3.228-.592l-3.614.58a1 1 0 01-1.113-1.286l.8-2.563A6.285 6.285 0 012 10zm8 8.167c-.942 0-1.855-.123-2.716-.351C8.736 19.763 11.257 21 14 21c1.145 0 2.237-.21 3.228-.592l3.614.58a1 1 0 001.113-1.286l-.8-2.563A6.285 6.285 0 0022 14c0-2.172-1.098-4.047-2.783-5.308.076.424.116.86.116 1.308 0 4.673-4.353 8.167-9.333 8.167z" fill="currentColor"/></svg>
